icons/bhi_chart-funnel.svg

<svg xmlns="http://www.w3.org/2000/svg" viewBox="0 0 512 512" enable-background="new 0 0 512 512"><path fill="#010101" d="M224 480.6h-160v-96.6h162.2v96.6h-2.2zM384 224v-96h-320v96h320zM320 352v-96h-256v96h256zM480 96v-96h-416v96h416z"/></svg>

<?xml version="1.0" encoding="utf-8"?>
<!-- Generator: Adobe Illustrator 19.2.0, SVG Export Plug-In . SVG Version: 6.00 Build 0)  -->
<svg version="1.1" id="Layer_1" xmlns="http://www.w3.org/2000/svg" xmlns:xlink="http://www.w3.org/1999/xlink" x="0px" y="0px"
	 viewBox="0 0 512 512" enable-background="new 0 0 512 512" xml:space="preserve">
<path fill="#010101" d="M224,480.6H64V384h162.2v96.6H224z"/>
<path fill="#010101" d="M384,224v-96H64v96H384z"/>
<path fill="#010101" d="M320,352v-96H64v96H320z"/>
<path fill="#010101" d="M480,96V0H64v96H480z"/>
</svg>
